X:1
T:Lai lūdz par tevi
T:(atvadu dziedājums)
T:M. Celminskis
T:Lai lūdz par tevi (atvadu dziedājums)
C:M. Celminskis
%%score { ( 1 2 ) | ( 3 4 ) }
L:1/8
Q:1/4=80
M:4/4
K:F
V:1 treble nm="P1"
V:2 treble 
V:3 bass 
V:4 bass 
V:1
!mf!"^Andante" F4 F2 G2 | A2 A2 A2 A2 | c4 B4 | (G2 B2) A4 | A4 A2 A2 | A2 A2 G2 F2 | B4 A4 | %7
w: lai sa- vā|val- stī- bā tev|dā- vā|mū- * žam|to mā- jok-|li, kur svēt- lai-|mī- giem|
w: 1. lūdz par|te- vi vi- si|Die- va|svē- * tie,|1. lai- me|mū- žī- gā kā|al- ga|
w: un eņ- ģe-|ļi, kas lem- ti|dar- biem|cē- * liem,|ir vi- sai|ra- dī- bai kā|jau- ka|
w: 2. Pes- tī-|tājs, tavs ties- ne-|sis, ir|žē- * līgs,|2. te- vi|sau- cis sa- va|tro- ņa|
w: Un Die- va-|mā- tes smaids lai|at- mirdz|vē- * līgs,|kad te- vi|sveiks uz de- bess|mā- ju|
w: 3. Die- vu,|žēl- sir- dī- go|Tē- vu,|lū- * dzam,|3. gais- ma|vie- nī- gā, kam|na- v(a)|
 G4 F4 ::!f!"^Refrēns" A4!<(! A2!<)! c2 | d2 A2 A2 A2 | c4 G4 | B4 B2 B2 | A2 G2 A2 F2 | %13
w: vie- ta.||||||
w: do- ta,|1.\-3. gai- šie|de- bess ga- ri|aiz- ved|te- vi tai|1.\-3. stī- bā, kur|
w: ro- ta.|jo tiem, kas|tic un Die- vam|vel- tī|se- vi, būs|mū- žam dzī- vot|
w: priek- šā.||||||
w: sliek- šņa.||||||
w: rie- ta,||||||
 F2 G2 G2 A2 |!>(! G8!>)! | F8 :| %16
w: |||
w: vi- siem la- bi|klā-|jas,|
w: de- bess Tē- va|mā-|jās.|
w: |||
w: |||
w: |||
V:2
 C4 D2 E2 | F2 F2 F2 F2 | G4 G4 | (E2 G2) F4 | F4 F2 F2 | F2 F2 E2 F2 | G4 F4 | E4 F4 :: F4 F2 G2 | %9
 F2 F2 F2 F2 | G4 E4 | G4 G2 G2 | F2 E2 E2 D2 | D2 F2 F2 F2 | E8 | F8 :| %16
V:3
!mf! A,4 A,2 C2 | C2 C2 D2 D2 | C4 C4 | C4 C4 | D4 C2 C2 | =B,2 B,2 _B,2 A,2 | C4 C4 | B,4 A,4 :: %8
!f! C4!<(! C2!<)! C2 | A,2 D2 E2 D2 | C4 C4 | D4 D2 C2 | C2 C2 C2 A,2 | A,2 D2 D2 C2 | %14
!>(! B,8!>)! | A,8 :| %16
V:4
 F,4 D,2 C,2 | F,2 E,2 D,2 D,2 | E,4 E,4 | C,2 E,2 F,4 | D,4 D,2 D,2 | D,2 D,2 C,2 D,2 | E,4 F,4 | %7
 C,4 F,4 :: F,4 F,2 E,2 | D,2 D,2 D,2 D,2 | E,4 C,4 | G,4 F,2 E,2 | F,2 C,2 A,,2 D,2 | %13
 C,2 B,,2 B,,2 C,2 | C,8 | F,8 :| %16

